X:14
T:Son Ar Chistr
R:misc
C:Jean Bernard & Jean-Marie Prima
D:Alan Stivell
D:Skooter (How Much Is the Fish?)
D:Bran
O:Bretagne
Z:id:hn-misc-14
M:3/4
L:1/8
K:Em
A | AF G2 E2 | EA AG FA | AF G2 E2 | FD E3 :|
|: E | GA B2 B2 | cA B3 B | AA G2 E2 |
EA AG FA | AF G2 E2 | FD E3 :|
P:variations
A | AF G2 E2 | EA AG FA | AG/F/ G2 EF/G/ | FD E3 :|
|: E | GA B2 BA/B/ | cA B3 B | A/G/F G2 E2 |
EA AG FA | A/G/F G2 EF/G/ | FD E3 :|

